X: 8
T: Saint Patrick's Day
R: jig
M: 6/8
L: 1/8
K: Gmaj
|: GAG GBd | gfe dBG | cBc BAG | EFG AFD | GAG GBd | gfe dBG | cde dBG |1 E2F G2D :|2 E2F G3 |
|: def gag | fed edB | def gbg | fed e3 | def gag | fed efg |
|GAG GBd | gfe dBG | cBc BAG | EFG AFD | GAG GBd | gfe dBG | cde dBG |1 E2F G2B :|2 E2F G3 |


Tune 385	Setting 13216

